X: 189
T: A Fig For A Kiss
R: slip jig
M: 9/8
K: Edorian
.E2B BGE BGE|FAD AFd AFD|EFG AB=c BAG|BeB AGF E2D|
.E2B BGE BGE|FAD AFd AFD|EFG AB=c BAG|BeB AGF E2B||
eBe geg bge|dAd fdf afd|eBe geg bge|gfe Be^d e2B|
eBe geg bge|dAd fdf afd|e/f/gf ed=c BAG|BeB AGF E3||

